azure-patterns/svg-six-circle-hexagon.svg

<svg xmlns="http://www.w3.org/2000/svg" viewBox="0 0 49 49">
                                
                            
	<path d="M26.165 30.0381H23.6387V44.0002H26.165V30.0381Z" fill="#50E6FF"></path>
	<path d="M26.165 2.96484H23.6387V18.6617H26.165V2.96484Z" fill="#50E6FF"></path>
	<path d="M30.6616 26.2185L29.3984 28.4062L42.1751 35.7831L43.4383 33.5953L30.6616 26.2185Z" fill="#50E6FF"></path>
	<path d="M7.30027 12.7263L6.03711 14.9141L19.2805 22.5604L20.5437 20.3726L7.30027 12.7263Z" fill="#50E6FF"></path>
	<path d="M42.3273 12.8326L29.2808 20.3652L30.5439 22.553L43.5904 15.0204L42.3273 12.8326Z" fill="#50E6FF"></path>
	<path d="M19.1916 26.1802L5.81689 33.9023L7.08005 36.0901L20.4547 28.368L19.1916 26.1802Z" fill="#50E6FF"></path>
	<path d="M24.9017 19.9586L28.6996 22.1481V26.527L24.9017 28.7249L21.1123 26.5354V22.1565L24.9017 19.9586ZM24.9017 17.0449L23.6386 17.7776L19.8491 19.967L18.5859 20.6997V22.1565V26.5354V27.9923L19.8491 28.7249L23.647 30.9144L24.9101 31.647L26.1733 30.9144L29.9712 28.7249L31.2344 27.9923V26.5354V22.1565V20.6997L29.9712 19.967L26.1649 17.7776L24.9017 17.0449Z" fill="#0078D4"></path>
	<path d="M21.1123 44.5901V44.5312C21.1123 42.4512 22.7965 40.7754 24.8681 40.7754H24.927C27.007 40.7754 28.6828 42.4596 28.6828 44.5312V44.5901C28.6828 46.6701 26.9986 48.3459 24.927 48.3459H24.8681C22.7965 48.3459 21.1123 46.6617 21.1123 44.5901Z" fill="#0078D4"></path>
	<path d="M21.1123 4.16886V4.10991C21.1123 2.02991 22.7965 0.345703 24.8765 0.345703H24.9355C27.007 0.345703 28.6913 2.02991 28.6913 4.10991V4.16886C28.6913 6.24044 27.007 7.92465 24.9355 7.92465H24.8765C22.7965 7.92465 21.1123 6.24044 21.1123 4.16886Z" fill="#0078D4"></path>
	<path d="M40.7503 37.7518L40.6997 37.7182C38.8976 36.6824 38.2829 34.3834 39.3271 32.5813L39.3608 32.5308C40.3966 30.7287 42.6955 30.1139 44.4976 31.1582L44.5481 31.1918C46.3503 32.2276 46.965 34.5266 45.9208 36.3287L45.8871 36.3792C44.8429 38.1729 42.5439 38.7876 40.7503 37.7518Z" fill="#0078D4"></path>
	<path d="M7.25956 18.0295H7.20061C5.12061 18.0295 3.44482 16.3453 3.44482 14.2737V14.2148C3.44482 12.1348 5.12903 10.459 7.20061 10.459H7.25956C9.33956 10.459 11.0153 12.1432 11.0153 14.2148V14.2737C11.0238 16.3453 9.33956 18.0295 7.25956 18.0295Z" fill="#0078D4"></path>
	<path d="M44.5313 17.5085L44.4808 17.5422C42.6787 18.5779 40.3798 17.9632 39.344 16.1695L39.3103 16.119C38.2745 14.3169 38.8892 12.0179 40.6829 10.9822L40.7334 10.9485C42.5355 9.91268 44.8345 10.5274 45.8703 12.3211L45.904 12.3716C46.9398 14.1737 46.325 16.4727 44.5313 17.5085Z" fill="#0078D4"></path>
	<path d="M7.25956 38.2404H7.20061C5.12061 38.2404 3.44482 36.5562 3.44482 34.4847V34.4257C3.44482 32.3457 5.12903 30.6699 7.20061 30.6699H7.25956C9.33956 30.6699 11.0153 32.3541 11.0153 34.4257V34.4847C11.0238 36.5562 9.33956 38.2404 7.25956 38.2404Z" fill="#0078D4"></path>
</svg>

<svg xmlns="http://www.w3.org/2000/svg" viewBox="0 0 49 49"><path d="M26.165 30.038h-2.526V44h2.526V30.038zM26.165 2.965h-2.526v15.697h2.526V2.965zM30.662 26.218l-1.264 2.188 12.777 7.377 1.263-2.188-12.776-7.377zM7.3 12.726l-1.263 2.188 13.244 7.646 1.263-2.187L7.3 12.726zM42.327 12.833l-13.046 7.532 1.263 2.188L43.59 15.02l-1.263-2.187zM19.192 26.18L5.817 33.902 7.08 36.09l13.375-7.722-1.263-2.188z" fill="#50E6FF"/><path d="M24.902 19.959l3.798 2.19v4.378l-3.798 2.198-3.79-2.19v-4.378l3.79-2.198zm0-2.914l-1.263.733-3.79 2.189-1.263.733v7.292l1.263.733 3.798 2.19 1.263.732 1.263-.733 3.798-2.19 1.263-.732V20.7l-1.263-.733-3.806-2.19-1.263-.732zM21.112 44.59v-.059a3.754 3.754 0 0 1 3.756-3.756h.059a3.754 3.754 0 0 1 3.756 3.756v.06a3.754 3.754 0 0 1-3.756 3.755h-.059a3.76 3.76 0 0 1-3.756-3.756zM21.112 4.169v-.06A3.763 3.763 0 0 1 24.877.347h.059A3.761 3.761 0 0 1 28.69 4.11v.059a3.76 3.76 0 0 1-3.755 3.756h-.06a3.761 3.761 0 0 1-3.764-3.756zM40.75 37.752l-.05-.034a3.75 3.75 0 0 1-1.373-5.137l.034-.05a3.75 3.75 0 0 1 5.137-1.373l.05.034a3.75 3.75 0 0 1 1.373 5.137l-.034.05a3.768 3.768 0 0 1-5.137 1.373zM7.26 18.03H7.2a3.754 3.754 0 0 1-3.755-3.756v-.06A3.754 3.754 0 0 1 7.2 10.46h.059a3.754 3.754 0 0 1 3.755 3.756v.059a3.748 3.748 0 0 1-3.755 3.755zM44.531 17.509l-.05.033a3.764 3.764 0 0 1-5.137-1.373l-.034-.05a3.764 3.764 0 0 1 1.373-5.137l.05-.034a3.764 3.764 0 0 1 5.137 1.373l.034.05a3.764 3.764 0 0 1-1.373 5.138zM7.26 38.24H7.2a3.754 3.754 0 0 1-3.755-3.755v-.06A3.754 3.754 0 0 1 7.2 30.67h.059a3.754 3.754 0 0 1 3.755 3.756v.059A3.748 3.748 0 0 1 7.26 38.24z" fill="#0078D4"/></svg>
